X:19159
T:Xuanín de Mieres (2 Voces) (Arrg. D)
C:Trad
M:2/4
L:1/4
Q:2/4=100
K:D
V:1
A/B/|:dA/B/|dA/B/|FF|F/E/F/A/|GG|G/F/G/B/|A/B/A/F/|DA/B/|
dA/B/|dA/B/|FF|F/E/F/A/|GE|CE|[1 D2-|D A/B/:|[2 D2-|D D|
|:EE|ED/E/|FF|FE/F/|GG|G/F/G/B/|A/B/A/F/|DD|
EE|ED/E/|FF|FE/F/|GE|CE|[1 D2-|D D:|[2 D2-|D2||!
V:2
A/B/|:"D"F2|"D"F2|"D"D2|"D"D/C/D/D/|"Em"E2|"Em"E/D/E/E/|"D"FD|"D"D2|
"D"F2|"D"F2|"D"D2|"D"D/C/D/F/|"G"G2|"G"G2|[1 "D"F2-|F A/B/:|[2 "D"F2-|F F|
|:"F#m"C2-|"F#m"C D/C/|"D"D2-|"D"D E/D/|"Em"E2|"Em"E/D/E/G/|"D"F/G/F/D/|"D"DD|
"F#m"C2-|"F#m"C D/C/|"D"D2-|"D"D E/D/|"G"GG|"G"GG|[1 "D"F2-|"D"F D:|[2 "D"D2-|D2||


